X: 2686
T: Banks Of Inverness, The
R: polka
M: 2/4
K: Amajor
E>F EC|EF A>>B|ce B c/B/|AF dF|
E>F EC|EF A>>B|ce B c/B/|1 A2 AF:|2 A2 AB||
ce ec|df fe|ce B c/B/|AF FE|
ce ec|df f>>g|af ge|f2 fg|
af ge|f/g/f/e/ cB|ce B c/B/|AF dF|
E>F EC|EF A>>B|ce B c/B/|A2 AB|
|:ce ce|ce e2|fe ce|fe cB|ce ce|
[1 ce e>> e|fe cB|BA AB:|2 ce e> a/g|fe cB|BA AE||
|:Ac e>> =g|fe d>> f|ec A B/c/|BA FE|
Ac e>> =g|fe d>> f|ec AF|FE E2:|

